svg/u23ee.svg

<svg viewBox="0 0 128 128" xmlns="http://www.w3.org/2000/svg">
  <g>
    <path d="M116.46,3.96h-104c-4.42,0-8,3.58-8,8v104c0,4.42,3.58,8,8,8h104c4.42,0,8-3.58,8-8v-104 C124.46,7.54,120.88,3.96,116.46,3.96z" fill="#F77E00"/>
    <path d="M110.16,3.96h-98.2c-4.13,0.03-7.47,3.37-7.5,7.5v97.9c-0.01,4.14,3.34,7.49,7.48,7.5 c0.01,0,0.01,0,0.02,0h98.1c4.14,0.01,7.49-3.34,7.5-7.48c0-0.01,0-0.01,0-0.02v-97.9c0.09-4.05-3.13-7.41-7.18-7.5 C110.31,3.96,110.23,3.96,110.16,3.96z" fill="#FF9800"/>
    <path d="M108.46,63.96v-25.7c0-1.8-1.7-2.9-3-2l-35,24.4v-22.4c0.13-1.13-0.69-2.15-1.82-2.28 c-0.45-0.05-0.9,0.05-1.28,0.28l-36.9,25.1v-23.5c0-1.05-0.85-1.9-1.9-1.9h0h-10.2c-1.05,0-1.9,0.85-1.9,1.9l0,0v52.3 c0,1.05,0.85,1.9,1.9,1.9h0h10.3c1.05,0,1.9-0.85,1.9-1.9l0,0v-23.6l36.9,25c0.98,0.58,2.24,0.26,2.82-0.72 c0.23-0.39,0.33-0.84,0.28-1.28v-22.3l35,24.4c1.4,0.9,3-0.2,3-2L108.46,63.96z" fill="#FAFAFA"/>
    <path d="M40.16,12.86c0-2.3-1.6-3-10.8-2.7 c-7.7,0.3-11.5,1.2-13.8,4s-2.9,6.5-3,13.3c0,4.8,0,7.3,2.5,7.3c3.4,0,3.4-5.9,6.2-10.3C26.66,15.76,40.16,15.86,40.16,12.86z" opacity="0.75" fill="#FFBD52" enable-background="new "/>
  </g>
</svg>

<svg viewBox="0 0 128 128" xmlns="http://www.w3.org/2000/svg">
  <defs/>
  <path d="M116.46,3.96 L12.46,3.96 C8.04,3.96 4.46,7.54 4.46,11.96 L4.46,115.96 C4.46,120.38 8.04,123.96 12.46,123.96 L116.46,123.96 C120.88,123.96 124.46,120.38 124.46,115.96 L124.46,11.96 C124.46,7.54 120.88,3.96 116.46,3.96 Z" fill="#F77E00"/>
  <path d="M110.16,3.96 L11.96,3.96 C7.83,3.99 4.49,7.33 4.46,11.46 L4.46,109.36 C4.45,113.5 7.8,116.85 11.94,116.86 C11.95,116.86 11.95,116.86 11.96,116.86 L110.06,116.86 C114.2,116.87 117.55,113.52 117.56,109.38 C117.56,109.37 117.56,109.37 117.56,109.36 L117.56,11.46 C117.65,7.41 114.43,4.05 110.38,3.96 C110.31,3.96 110.23,3.96 110.16,3.96 Z" fill="#FF9800"/>
  <path d="M108.46,63.96 L108.46,38.26 C108.46,36.46 106.76,35.36 105.46,36.26 L70.46,60.66 L70.46,38.26 C70.59,37.13 69.77,36.11 68.64,35.98 C68.19,35.93 67.74,36.03 67.36,36.26 L30.46,61.36 L30.46,37.86 C30.46,36.81 29.61,35.96 28.56,35.96 L28.56,35.96 L18.36,35.96 C17.31,35.96 16.46,36.81 16.46,37.86 L16.46,37.86 L16.46,90.16 C16.46,91.21 17.31,92.06 18.36,92.06 L18.36,92.06 L28.66,92.06 C29.71,92.06 30.56,91.21 30.56,90.16 L30.56,90.16 L30.56,66.56 L67.46,91.56 C68.44,92.14 69.7,91.82 70.28,90.84 C70.51,90.45 70.61,90 70.56,89.56 L70.56,67.26 L105.56,91.66 C106.96,92.56 108.56,91.46 108.56,89.66 L108.46,63.96 Z" fill="#FAFAFA"/>
  <path d="M40.16,12.86 C40.16,10.56 38.56,9.86 29.36,10.16 C21.66,10.46 17.86,11.36 15.56,14.16 C13.26,16.96 12.66,20.66 12.56,27.46 C12.56,32.26 12.56,34.76 15.06,34.76 C18.46,34.76 18.46,28.86 21.26,24.46 C26.66,15.76 40.16,15.86 40.16,12.86 Z" fill="#FFBD52" opacity="0.75"/>
</svg>
